X:1
T:Brighton, 88.88.88
T:Brighton, 88.88.88
T:Anonymous, before 1860
T:Public Domain Courtesy of the Cyber Hymnal™
C:Anonymous, before 1860
Z:Public Domain
Z:Courtesy of the Cyber Hymnal™
%%score ( 1 2 ) ( 3 4 )
L:1/8
Q:1/4=110
M:2/4
K:Eb
V:1 treble 
V:2 treble 
V:3 bass 
V:4 bass 
V:1
 [EG]2 [EG][FA] | [GB]2 [EG]2 | [DF]2 ([DF][EG]) | [FA]2 [DF]2 | [EG]2 [EG][FA] | B2 (ed) | %6
 (cB) (AG) | [EG]2 [DF]2 | [EG]2 [EG][FA] | [GB]2 [EG]2 | [DF]2 ([DF][EG]) | [FA]2 [DF]2 | %12
 [EG]2 (GA) | [FB]2 [Ec]2 | [DB]2 [E=A]2 | [DB]3 [DF] | [DF]2 ([DF][EG]) | ([GB][FA]) ([EG][DF]) | %18
 [EG]2 ([EG][FA]) | [GB]3 [EB] | [EB]2 [Ee]2 | (ec) ([EA][CF]) | [B,E]2 (GF) | [B,E]4 |] %24
V:2
 x4 | x4 | x4 | x4 | x4 | (GE) E2 | E2 E2 | x4 | x4 | x4 | x4 | x4 | x2 E2 | x4 | x4 | x4 | x4 | %17
 x4 | x4 | x4 | x4 | E2 x2 | x2 D2 | x4 |] %24
V:3
 [E,B,]2 [E,B,][E,B,] | [E,B,]2 [E,B,]2 | [B,,B,]2 [B,,B,]2 | [B,,B,]2 [B,,B,]2 | [E,B,]2 [E,B,]2 | %5
 (B,G,) (CB,) | (A,G,) (CB,) | [B,,B,]4 | [E,B,]2 [E,B,][E,B,] | [E,B,]2 [E,B,]2 | %10
 [B,,B,]2 [B,,B,]2 | [B,,B,]2 [B,,B,]2 | [E,B,]2 [E,B,]2 | (B,F,) [E,G,]2 | F,2 [F,C]2 | %15
 [B,,B,]3 [B,,B,] | [B,,B,]2 [B,,B,]2 | [B,,B,]2 [B,,B,]2 | [E,B,]2 [E,B,]2 | [E,B,]3 [E,G,] | %20
 [E,G,]2 [G,B,]2 | [A,C]2 (CA,) | [B,,G,]2 [B,,A,]2 | [E,G,]4 |] %24
V:4
 x4 | x4 | x4 | x4 | x4 | E,2 E,2 | E,2 E,2 | x4 | x4 | x4 | x4 | x4 | x4 | D,2 x2 | F,2 x2 | x4 | %16
 x4 | x4 | x4 | x4 | x4 | x2 A,,2 | x4 | x4 |] %24

